packages/foundations/assets/icons/functional/images/transportation/electric_car_16_inverted.svg

<svg width="16" height="16" viewBox="0 0 16 16" fill="none" xmlns="http://www.w3.org/2000/svg">
<g clip-path="url(#clip0_2214_6732)">
<path fill-rule="evenodd" clip-rule="evenodd" d="M5.19778 11.3937L5.19238 12.3991H3.19776V10.6617C2.91314 10.3365 2.74651 9.96463 2.69787 9.54602L2.48098 7.60092H1.59778V6.00092H2.95458L3.56351 3.25561C3.75392 2.61156 4.31778 2.00092 5.0334 2.00092L8.51763 2.00172C8.89318 2.00172 9.19763 2.30616 9.19763 2.68172C9.19763 3.05727 8.89318 3.36172 8.51763 3.36172L4.83239 3.36092L4.31778 6.00092C6.23695 6.00038 7.46362 6.00012 7.99778 6.00012C8.00005 5.11551 8.71624 4.40566 9.59731 4.40263C9.59778 3.95909 9.95595 3.60092 10.3978 3.60092H12.0075C12.4177 3.60092 12.7978 3.97965 12.8069 4.40252C13.6504 4.40263 14.4023 5.15913 14.4023 6.00262L14.3978 12.3991C14.3978 13.2827 13.6814 13.9991 12.7978 13.9991H9.59839C8.71474 13.9991 7.99839 13.2827 7.99839 12.3991L7.99778 11.6009C7.06445 11.6009 6.13111 11.5318 5.19778 11.3937ZM12.7978 5.77997C12.5901 5.77997 11.5237 5.77997 9.59839 5.77997C9.48478 5.77997 9.35839 5.86471 9.35839 6.01999C9.35839 6.1888 9.35839 8.31516 9.35839 12.3991C9.35839 12.5127 9.46349 12.6297 9.59839 12.6391C9.86385 12.6391 10.9303 12.6391 12.7978 12.6391C12.9114 12.6391 13.0378 12.5548 13.0378 12.3991C13.0378 12.1265 13.0378 10.0002 13.0378 6.01999C13.0378 5.90638 12.9193 5.77997 12.7978 5.77997ZM6.58968 8.44786C6.32796 8.5551 6.14866 8.82976 6.20126 9.07306C6.27501 9.36821 6.35599 9.69029 6.44418 10.0393C6.51322 10.2047 6.71603 10.4009 6.9075 10.4011C7.20368 10.401 7.56711 10.4009 7.99778 10.4009V9.20731L7.46578 9.20785L7.35177 8.77721C7.27165 8.53508 6.88412 8.32722 6.58968 8.44786ZM11.6988 6.85595C11.9759 6.98043 12.1454 7.30395 12.0002 7.64914C11.8555 7.96968 11.7086 8.28667 11.5594 8.60012L11.8008 8.60092C12.2089 8.60092 12.5389 9.0226 12.3481 9.44693C12.1189 9.96753 11.831 10.5728 11.4844 11.2627C11.3485 11.565 10.9933 11.6998 10.6911 11.564C10.4141 11.4394 10.2341 11.0978 10.3899 10.7707C10.482 10.5469 10.6431 10.2234 10.873 9.80012L10.6328 9.80092C10.2247 9.80092 9.90299 9.372 10.0855 8.95502C10.2584 8.56248 10.5317 7.96326 10.9056 7.15735C11.0414 6.85509 11.3966 6.72014 11.6988 6.85595ZM3.93234 7.88347L5.17968 8.17706C5.4561 8.28165 5.61957 8.57703 5.55124 8.873C5.47669 9.19588 5.15452 9.3972 4.83164 9.32266L3.5843 9.02906C3.30789 8.92447 3.14442 8.62909 3.21275 8.33312C3.28729 8.01024 3.60946 7.80893 3.93234 7.88347Z" fill="#1A1C1F"/>
</g>
<defs>
<clipPath id="clip0_2214_6732">
<rect width="16" height="16" fill="white"/>
</clipPath>
</defs>
</svg>

<svg xmlns="http://www.w3.org/2000/svg" width="16" height="16" fill="none"><g clip-path="url(#a)"><path fill="#1A1C1F" fill-rule="evenodd" d="m5.198 11.394-.006 1.005H3.198v-1.737a2 2 0 0 1-.5-1.116L2.48 7.601h-.883V6h1.357l.609-2.745C3.754 2.612 4.318 2 5.034 2h3.484a.68.68 0 1 1 0 1.36H4.832L4.318 6h3.68a1.6 1.6 0 0 1 1.6-1.598c0-.444.358-.802.8-.802h1.61c.41 0 .79.379.799.802.843 0 1.595.756 1.595 1.6l-.004 6.396a1.6 1.6 0 0 1-1.6 1.6h-3.2a1.6 1.6 0 0 1-1.6-1.6v-.798q-1.4 0-2.8-.207m7.6-5.614h-3.2a.237.237 0 0 0-.24.24v6.38c0 .113.105.23.24.24h3.2c.113 0 .24-.085.24-.24V6.02c0-.114-.119-.24-.24-.24M6.59 8.448c-.262.107-.441.382-.389.625l.243.966c.07.166.272.362.463.362h1.09V9.207h-.531l-.114-.43c-.08-.242-.468-.45-.762-.33m5.109-1.592a.595.595 0 0 1 .301.793q-.217.48-.44.951h.24c.409 0 .739.423.548.847a40 40 0 0 1-.864 1.816.6.6 0 0 1-.793.301.593.593 0 0 1-.301-.793q.138-.336.483-.97h-.24a.604.604 0 0 1-.547-.846q.258-.59.82-1.798a.6.6 0 0 1 .793-.301M3.932 7.883l1.248.294a.6.6 0 0 1-.348 1.146l-1.248-.294a.6.6 0 0 1 .348-1.146" clip-rule="evenodd"/></g><defs><clipPath id="a"><path fill="#fff" d="M0 0h16v16H0z"/></clipPath></defs></svg>
